src/icons/apps/scalable/Slack.svg

<?xml version="1.0" encoding="UTF-8" standalone="no"?>
<!-- Generator: flash2svg, http://dissentgraphics.com/tools/flash2svg -->

<svg
   xmlns:dc="http://purl.org/dc/elements/1.1/"
   xmlns:cc="http://creativecommons.org/ns#"
   xmlns:rdf="http://www.w3.org/1999/02/22-rdf-syntax-ns#"
   xmlns:svg="http://www.w3.org/2000/svg"
   xmlns="http://www.w3.org/2000/svg"
   xmlns:sodipodi="http://sodipodi.sourceforge.net/DTD/sodipodi-0.dtd"
   xmlns:inkscape="http://www.inkscape.org/namespaces/inkscape"
   id="Codekit"
   image-rendering="optimizeSpeed"
   version="1.1"
   style="background-color:#ffffff"
   x="0px"
   y="0px"
   width="1024px"
   height="1024px"
   viewBox="0 0 1024 1024"
   enable-background="new 0 0 1024 1024"
   inkscape:version="0.48.5 r10040"
   sodipodi:docname="Slack.svg">
  <metadata
     id="metadata18">
    <rdf:RDF>
      <cc:Work
         rdf:about="">
        <dc:format>image/svg+xml</dc:format>
        <dc:type
           rdf:resource="http://purl.org/dc/dcmitype/StillImage" />
      </cc:Work>
    </rdf:RDF>
  </metadata>
  <sodipodi:namedview
     pagecolor="#ffffff"
     bordercolor="#666666"
     borderopacity="1"
     objecttolerance="10"
     gridtolerance="10"
     guidetolerance="10"
     inkscape:pageopacity="0"
     inkscape:pageshadow="2"
     inkscape:window-width="1920"
     inkscape:window-height="1007"
     id="namedview16"
     showgrid="false"
     inkscape:zoom="0.65186406"
     inkscape:cx="-310.89851"
     inkscape:cy="674.74795"
     inkscape:window-x="0"
     inkscape:window-y="31"
     inkscape:window-maximized="1"
     inkscape:current-layer="Codekit" />
  <defs
     transform="matrix(1 0 0 1 0 0) "
     id="defs3" />
  <g
     id="shape2"
     style="fill:none;fill-opacity:1;stroke:#000000;stroke-opacity:1;stroke-width:8;stroke-miterlimit:4;stroke-dasharray:none">
    <path
       style="fill:none;fill-opacity:1;stroke:#000000;stroke-opacity:1;stroke-width:8;stroke-miterlimit:4;stroke-dasharray:none"
       inkscape:connector-curvature="0"
       d="M 727.2,91.75 C 718.5,87.4 709.35,83.1 699.95,79.05 691.35,75.3 682.8,71.85 674.05,68.65 631.95,52.9 589.8,43.3 547.6,40 478.2,34.4 408.65,45.4 338.7,73 c -23.45,9.3 -45.65,19.9 -66.6,31.9 -41.3,23.7 -77.6,52.65 -108.5,86.7 Q 112,248.2 79.05,324.15 C 57,374.95 44,426 40,476.55 c -3.7,45.6 -0.2,90.75 10.25,136 5.7,24.55 13.25,48.75 22.75,72.85 27.7,69.95 67.25,128.4 118.55,175.1 31.45,28.65 67.2,52.85 107.3,72.8 0.15,0.05 0.25,0.1 0.35,0.15 3.1,1.55 6.1,3 8.65,4.15 4.9,2.35 9.25,4.35 13.6,6.25 1.1,0.45 1.9,0.85 2.75,1.2 9.45,4.1 18.9,7.85 27.9,11.2 2.35,0.85 4.5,1.65 6.6,2.4 19.05,6.7 38.2,12.15 56.9,16.3 7.9,1.7 15.8,3.25 23.5,4.55 0.95,0.2 1.95,0.3 2.7,0.45 11.65,1.85 23.2,3.25 34.75,4.2 69.8,5.45 139.2,-5.55 208.85,-33.05 24.35,-9.6 47.3,-20.65 68.8,-33.15 35.1,-20.35 66.45,-44.5 94.1,-72.5 4.15,-4.2 8.2,-8.5 12.25,-12.9 8.4,-9.25 16.5,-18.95 24.25,-29.1 20.05,-26.15 37.55,-55.1 52.6,-86.7 2.6,-5.5 5.15,-11.1 7.65,-16.85 0.25,-0.6 0.55,-1.25 0.8,-1.85 0.15,-0.3 0.25,-0.6 0.4,-0.9 2.8,-6.6 5.45,-13.25 8.1,-20 C 966,646.5 974.5,615.5 979.7,584.1 c 0.7,-4.4 1.4,-9.15 2.1,-13.9 0.9,-7.35 1.75,-14.85 2.35,-22.6 0.1,-1.45 0.25,-3.15 0.4,-4.95 1.3,-19.3 1.3,-38.7 0.1,-58.4 -0.6,-8.35 -1.35,-16.9 -2.4,-25.45 -2,-16.4 -4.95,-32.85 -8.95,-49.7 -5.45,-23.15 -12.85,-46.75 -22.2,-70.4 -27.55,-69.75 -67,-128.05 -118.6,-175.1 -18.75,-17.1 -39.35,-32.8 -61.55,-46.95 -13.85,-8.9 -28.3,-17.1 -43.75,-24.9 z"
       id="path1" />
  </g>
  <g
     id="ico"
     style="fill:#000000;fill-opacity:1">
    <g
       id="Symbole.__208_1"
       overflow="visible"
       style="fill:#000000;fill-opacity:1">
      <g
         id="Calque.__202"
         style="fill:#000000;fill-opacity:1">
        <g
           id="shape8"
           style="fill:#000000;fill-opacity:1">
          <path
             id="path5"
             fill="#FFCC00"
             fill-opacity="1"
             d="M627.99,281.457 Q625.061,282.783 622.74,285.104 L600.802,307.429 C599.476,308.81 598.371,310.302 597.542,312.015 L597.542,312.126 592.955,322.128 C591.961,324.338 591.463,326.659 591.463,329.035 591.463,331.411 591.961,333.732 592.955,335.943 L597.542,346 C598.371,347.768 599.476,349.371 600.858,350.752 L600.913,350.752 762.05,511.834 600.913,672.972 600.858,672.972 C599.421,674.464 598.26,676.121 597.432,677.945 L592.845,688.334 592.845,688.389 C591.906,690.544 591.463,692.81 591.463,695.186 591.519,697.562 592.016,699.772 592.955,701.928 L592.955,701.983 597.542,712.04 C598.371,713.808 599.476,715.411 600.858,716.792 L600.913,716.792 622.851,738.731 622.851,738.786 C624.232,740.167 625.835,741.217 627.548,742.046 L627.603,742.046 637.605,746.688 C639.76,747.738 642.081,748.235 644.458,748.235 646.834,748.235 649.099,747.738 651.31,746.798 L661.699,742.157 661.754,742.101 C663.577,741.273 665.235,740.167 666.617,738.786 L871.52,533.883 C872.901,532.501 874.006,530.844 874.835,529.02 L874.89,528.965 879.532,518.576 C880.472,516.366 880.969,514.1 880.969,511.724 880.969,509.348 880.472,507.027 879.422,504.871 L874.78,494.869 874.78,494.814 C873.951,493.101 872.901,491.499 871.52,490.117 L666.617,284.938 C665.069,283.391 663.301,282.175 661.256,281.346 L650.868,277.091 C646.613,275.378 642.358,275.378 638.047,277.202 L628.045,281.457 627.99,281.457z M152.536,490.172 C151.154,491.554 150.049,493.212 149.22,495.035 L149.165,495.091 144.523,505.479 C143.584,507.69 143.086,509.955 143.086,512.332 143.086,514.708 143.584,517.029 144.633,519.184 L149.275,529.186 149.275,529.241 C150.104,530.954 151.154,532.557 152.536,533.938 L357.439,739.117 C358.986,740.665 360.754,741.88 362.799,742.709 L373.188,746.964 C377.443,748.677 381.698,748.677 386.008,746.854 L396.01,742.599 396.065,742.599 C397.999,741.715 399.768,740.499 401.315,738.952 L423.253,716.627 C424.579,715.245 425.684,713.753 426.513,712.04 L426.513,711.93 431.1,701.928 C432.094,699.717 432.592,697.396 432.592,695.02 432.592,692.644 432.094,690.323 431.1,688.113 L426.513,678.055 C425.684,676.287 424.579,674.685 423.198,673.303 L423.142,673.303 262.005,512.221 423.142,351.084 423.198,351.084 C424.634,349.592 425.795,347.934 426.624,346.11 L431.21,335.722 431.21,335.666 C432.15,333.511 432.592,331.246 432.592,328.869 432.537,326.493 432.039,324.283 431.1,322.128 L431.1,322.072 426.513,312.015 C425.684,310.247 424.579,308.644 423.198,307.263 L423.142,307.263 401.204,285.325 401.204,285.269 C399.823,283.888 398.22,282.838 396.507,282.009 L396.452,282.009 386.45,277.367 C384.295,276.317 381.974,275.82 379.598,275.82 377.222,275.82 374.956,276.317 372.746,277.257 L362.357,281.899 362.301,281.954 C360.478,282.783 358.82,283.888 357.439,285.269 L152.536,490.172z"
             style="fill:#000000;fill-opacity:1" />
        </g>
      </g>
    </g>
  </g>
</svg>

<?xml version="1.0" encoding="utf-8"?>
<!-- Generator: flash2svg, http://dissentgraphics.com/tools/flash2svg -->
<svg xmlns:xlink="http://www.w3.org/1999/xlink" id="Codekit" image-rendering="optimizeSpeed" baseProfile="basic" version="1.1" style="background-color:#ffffff" x="0px" y="0px" width="1024px" height="1024px" viewBox="0 0 1024 1024" enable-background="new 0 0 1024 1024" xmlns="http://www.w3.org/2000/svg">
  <defs transform="matrix(1 0 0 1 0 0) "/>
  <g id="shadow">
    <g id="shape">
      <path id="path" fill="#000000" fill-opacity="0.09803921568627451" d="M969.65,351.3 Q961.05,330.45 950.25,310.45 C946.2,302.9 941.9,295.4 937.35,288.05 917.8,256.35 893.95,226.4 865.8,198.25 773.65,106.1 662.35,60 532,60 401.65,60 290.4,106.1 198.25,198.25 106.1,290.4 60,401.65 60,532 60,662.35 106.1,773.65 198.25,865.8 290.4,957.95 401.65,1004 532,1004 662.35,1004 773.65,957.95 865.8,865.8 916.55,815 953.35,758.4 976.15,696.05 994.7,645.2 1004,590.55 1004,532 1004,487.1 998.55,444.45 987.6,404.05 986.35,399.5 985.05,394.95 983.7,390.45 979.6,377.15 974.9,364.1 969.65,351.3z"/>
    </g>
  </g>
  <g id="circle">
    <g id="shape2">
      <path id="path1" fill="#FFFFFF" fill-opacity="1" d="M727.2,91.75 C718.5,87.4 709.35,83.1 699.95,79.05 691.35,75.3 682.8,71.85 674.05,68.65 631.95,52.9 589.8,43.3 547.6,40 478.2,34.4 408.65,45.4 338.7,73 315.25,82.3 293.05,92.9 272.1,104.9 230.8,128.6 194.5,157.55 163.6,191.6 Q112,248.2 79.05,324.15 C57,374.95 44,426 40,476.55 36.3,522.15 39.8,567.3 50.25,612.55 55.95,637.1 63.5,661.3 73,685.4 100.7,755.35 140.25,813.8 191.55,860.5 223,889.15 258.75,913.35 298.85,933.3 299,933.35 299.1,933.4 299.2,933.45 302.3,935 305.3,936.45 307.85,937.6 312.75,939.95 317.1,941.95 321.45,943.85 322.55,944.3 323.35,944.7 324.2,945.05 333.65,949.15 343.1,952.9 352.1,956.25 354.45,957.1 356.6,957.9 358.7,958.65 377.75,965.35 396.9,970.8 415.6,974.95 423.5,976.65 431.4,978.2 439.1,979.5 440.05,979.7 441.05,979.8 441.8,979.95 453.45,981.8 465,983.2 476.55,984.15 546.35,989.6 615.75,978.6 685.4,951.1 709.75,941.5 732.7,930.45 754.2,917.95 789.3,897.6 820.65,873.45 848.3,845.45 852.45,841.25 856.5,836.95 860.55,832.55 868.95,823.3 877.05,813.6 884.8,803.45 904.85,777.3 922.35,748.35 937.4,716.75 940,711.25 942.55,705.65 945.05,699.9 945.3,699.3 945.6,698.65 945.85,698.05 946,697.75 946.1,697.45 946.25,697.15 949.05,690.55 951.7,683.9 954.35,677.15 966,646.5 974.5,615.5 979.7,584.1 980.4,579.7 981.1,574.95 981.8,570.2 982.7,562.85 983.55,555.35 984.15,547.6 984.25,546.15 984.4,544.45 984.55,542.65 985.85,523.35 985.85,503.95 984.65,484.25 984.05,475.9 983.3,467.35 982.25,458.8 980.25,442.4 977.3,425.95 973.3,409.1 967.85,385.95 960.45,362.35 951.1,338.7 923.55,268.95 884.1,210.65 832.5,163.6 813.75,146.5 793.15,130.8 770.95,116.65 757.1,107.75 742.65,99.55 727.2,91.75z"/>
    </g>
  </g>
  <g id="ico">
    <g id="Symbole.__208_1" overflow="visible">
      <g id="Calque.__202">
        <g id="shape8">
          <path id="path5" fill="#FFCC00" fill-opacity="1" d="M627.99,281.457 Q625.061,282.783 622.74,285.104 L600.802,307.429 C599.476,308.81 598.371,310.302 597.542,312.015 L597.542,312.126 592.955,322.128 C591.961,324.338 591.463,326.659 591.463,329.035 591.463,331.411 591.961,333.732 592.955,335.943 L597.542,346 C598.371,347.768 599.476,349.371 600.858,350.752 L600.913,350.752 762.05,511.834 600.913,672.972 600.858,672.972 C599.421,674.464 598.26,676.121 597.432,677.945 L592.845,688.334 592.845,688.389 C591.906,690.544 591.463,692.81 591.463,695.186 591.519,697.562 592.016,699.772 592.955,701.928 L592.955,701.983 597.542,712.04 C598.371,713.808 599.476,715.411 600.858,716.792 L600.913,716.792 622.851,738.731 622.851,738.786 C624.232,740.167 625.835,741.217 627.548,742.046 L627.603,742.046 637.605,746.688 C639.76,747.738 642.081,748.235 644.458,748.235 646.834,748.235 649.099,747.738 651.31,746.798 L661.699,742.157 661.754,742.101 C663.577,741.273 665.235,740.167 666.617,738.786 L871.52,533.883 C872.901,532.501 874.006,530.844 874.835,529.02 L874.89,528.965 879.532,518.576 C880.472,516.366 880.969,514.1 880.969,511.724 880.969,509.348 880.472,507.027 879.422,504.871 L874.78,494.869 874.78,494.814 C873.951,493.101 872.901,491.499 871.52,490.117 L666.617,284.938 C665.069,283.391 663.301,282.175 661.256,281.346 L650.868,277.091 C646.613,275.378 642.358,275.378 638.047,277.202 L628.045,281.457 627.99,281.457z M152.536,490.172 C151.154,491.554 150.049,493.212 149.22,495.035 L149.165,495.091 144.523,505.479 C143.584,507.69 143.086,509.955 143.086,512.332 143.086,514.708 143.584,517.029 144.633,519.184 L149.275,529.186 149.275,529.241 C150.104,530.954 151.154,532.557 152.536,533.938 L357.439,739.117 C358.986,740.665 360.754,741.88 362.799,742.709 L373.188,746.964 C377.443,748.677 381.698,748.677 386.008,746.854 L396.01,742.599 396.065,742.599 C397.999,741.715 399.768,740.499 401.315,738.952 L423.253,716.627 C424.579,715.245 425.684,713.753 426.513,712.04 L426.513,711.93 431.1,701.928 C432.094,699.717 432.592,697.396 432.592,695.02 432.592,692.644 432.094,690.323 431.1,688.113 L426.513,678.055 C425.684,676.287 424.579,674.685 423.198,673.303 L423.142,673.303 262.005,512.221 423.142,351.084 423.198,351.084 C424.634,349.592 425.795,347.934 426.624,346.11 L431.21,335.722 431.21,335.666 C432.15,333.511 432.592,331.246 432.592,328.869 432.537,326.493 432.039,324.283 431.1,322.128 L431.1,322.072 426.513,312.015 C425.684,310.247 424.579,308.644 423.198,307.263 L423.142,307.263 401.204,285.325 401.204,285.269 C399.823,283.888 398.22,282.838 396.507,282.009 L396.452,282.009 386.45,277.367 C384.295,276.317 381.974,275.82 379.598,275.82 377.222,275.82 374.956,276.317 372.746,277.257 L362.357,281.899 362.301,281.954 C360.478,282.783 358.82,283.888 357.439,285.269 L152.536,490.172z"/>
        </g>
      </g>
    </g>
  </g>
</svg>
